icon-themes/breeze_svg/cmd/sc_snappoints.svg

<svg viewBox="0 0 16 16" xmlns="http://www.w3.org/2000/svg"><path d="m11.5 2c-.831 0-1.5.66901-1.5 1.5v1.5h-1v3h5v-3h-1v-1.5c0-.83099-.669-1.5-1.5-1.5zm-6.5 1v1h4v-1zm6.5 0c.277 0 .5.22303.5.5v1.5h-1v-1.5c0-.27697.223-.5.5-.5zm-8.5 2v6h1v-6zm9 4v2h1v-2zm-7 3v1h6v-1z" fill="#4d4d4d"/><path d="m2 2v3h3v-1-1-1zm0 9v3h3v-1-1-1zm9 0v1 1 1h3v-3z" fill="#1d99f3"/></svg>

<svg xmlns="http://www.w3.org/2000/svg" viewBox="0 0 16 16">
 <path 
     style="fill:#4d4d4d" 
     d="M 11.5 2 C 10.669 2 10 2.66901 10 3.5 L 10 5 L 9 5 L 9 8 L 14 8 L 14 5 L 13 5 L 13 3.5 C 13 2.66901 12.331 2 11.5 2 z M 5 3 L 5 4 L 9 4 L 9 3 L 5 3 z M 11.5 3 C 11.777 3 12 3.22303 12 3.5 L 12 5 L 11 5 L 11 3.5 C 11 3.22303 11.223 3 11.5 3 z M 3 5 L 3 11 L 4 11 L 4 5 L 3 5 z M 12 9 L 12 11 L 13 11 L 13 9 L 12 9 z M 5 12 L 5 13 L 11 13 L 11 12 L 5 12 z "
     />
 <path 
     style="fill:#1d99f3" 
     d="M 2 2 L 2 5 L 5 5 L 5 4 L 5 3 L 5 2 L 2 2 z M 2 11 L 2 14 L 5 14 L 5 13 L 5 12 L 5 11 L 2 11 z M 11 11 L 11 12 L 11 13 L 11 14 L 14 14 L 14 11 L 11 11 z "
     />
 </svg>
